X:154
T:Napoleon Crossing the Alps
B:Terry "Cuz" Teahan "Sliabh Luachra on Parade" 1980
Z:Patrick Cavanagh
M:4/4
L:1/8
R:Hornpipe
K:D
FA | Bcec BAFA | def/e/d e2fa | bafe de f/a/f | e/g/e dB A2FA | 
Bced BAFA | def/e/d e2fa | bafe dfed | B2BA B2 :| 
fa | bafe defd' | bafd e2fa | bafe de f/a/f | e/g/e dB A2FA | 
Bced BAFA | def/e/d e2fa | bafe dfed | B2BA B2 :|| 

